X:2383
T:Arrane sooree 
T:(Courting song)
C:John Quayle, Glion Meay 
C:Traditional
O:Isle of Man
N:See KV273
Z:Kiaull Vannin 383 
M:6/8 
Q:160 
K:D 
B2A|G2G F2E|(A2F) D2E|F2G E2E|E3 (E2F)|G2A B2c|d2c B2A|B2B d2c|B3 (E2F)| 
(G2A) B2c|d2d (Bc)d|e2e ddc|B3 (B2A)|G2G (F2E)|(A2F) D2E/E/|F2G E2E|E3|| 

